svgs/sharp-regular/shirt-tank-top.svg

<svg xmlns="http://www.w3.org/2000/svg" viewBox="0 0 384 512"><!--! Font Awesome Pro 6.6.0 by @fontawesome - https://fontawesome.com License - https://fontawesome.com/license (Commercial License) Copyright 2024 Fonticons, Inc. --><path d="M112 72c0 44.2 35.8 80 80 80s80-35.8 80-80l0-48 0-24 48 0 0 24 0 48 0 50.3 61.5 122.9 2.5 5.1 0 5.7 0 232 0 24-24 0L24 512 0 512l0-24L0 256l0-5.7 2.5-5.1L64 122.3 64 72l0-48L64 0l48 0 0 24 0 48zm173.1 87.9C261.8 184.6 228.7 200 192 200s-69.8-15.4-93.1-40.1L48 261.7 48 464l288 0 0-202.3L285.1 159.9z"/></svg>

<svg xmlns="http://www.w3.org/2000/svg" viewBox="0 0 384 512"><!--! Font Awesome Pro 6.5.2 by @fontawesome - https://fontawesome.com License - https://fontawesome.com/license (Commercial License) Copyright 2024 Fonticons, Inc. --><path d="M112 72c0 44.2 35.8 80 80 80s80-35.8 80-80V24 0h48V24 72v50.3l61.5 122.9 2.5 5.1V256 488v24H360 24 0V488 256v-5.7l2.5-5.1L64 122.3V72 24 0h48V24 72zm173.1 87.9C261.8 184.6 228.7 200 192 200s-69.8-15.4-93.1-40.1L48 261.7V464H336V261.7L285.1 159.9z"/></svg>
